!!!OTL: Domine hyssopo
**kern
*staff1
=--
*clefC1
*k[]
!LO:TX:Y=123:t=P
2.b
4b
2b
2cc
1a
2g
2b
2.cc
4cc
2b
2b
=-
!LO:TX:Y=123:t=P
2.cc
4cc
2b
1g
2g
1g
0g
=-||
!!linebreak:original
1g
2f
2e
2e
2b
2b
2g
2g
2dd
2cc
2b
=-
!LO:TX:Y=-39:t=P
!LO:TX:Y=-38:t=P
!LO:TX:Y=-41:t=P
2a
2dd
1cc
2b
2dd
1cc
2b
1f
2f
=-
!LO:TX:Y=-36:t=P
2g
2g
1a
2b
1g
2a
1b
0a
!!linebreak:original
=-||
1d
2e
2f
1g
=-
!LO:TX:Y=-31:t=P
!LO:TX:Y=-33:t=P
!LO:TX:Y=-32:t=P
2b
2a
2g
2f
2b
2a
=-
!LO:TX:Y=-32:t=P
!LO:TX:Y=125:t=P
2g
2f
2e
2a
1f
=-
!LO:TX:Y=-32:t=P
!LO:TX:Y=-32:t=P
!LO:TX:Y=-32:t=P
2e
2g
2a
2b
1g
=-
2g
2.b
4b
4b
4b
2a
2g
=-
!LO:TX:Y=-35:t=P
!LO:TX:Y=-35:t=P
1f
2e
2.e
4e
4e
4e
=-
!LO:TX:Y=118:t=P
2e
2e
1e
0e
!!linebreak:original
=-||
1g
1g
2a
1f
2e
2g
2.a
4a
2g
=-
!LO:TX:Y=-35:t=P
2g
2.a
4b
2cc
2b
1a
0g
=-
!!linebreak:original
!LO:TX:Y=-36:t=P
0e
1g
1g
2g
2.b
4b
=-
!LO:TX:Y=-34:t=P
4b
4b
1a
2a
4g
4a
2f
=-
!LO:TX:Y=-33:t=P
2g
2.d
4f
2g
2a
1f
=-
!LO:TX:Y=-34:t=P
1e
2f
2a
1b
1a
1g
2a
=-
1g
2a
2b
2cc
2a
0b
=-=
*-
!!title: @{OTL}, @{GTL}, ed. @{ENC}
!!!pag:
!!!GTL: Hymnbook C
!!!EFL: 
!!!YEM: Creative Commons CC/BY/NC/SA 4.0
!!!ENC: Marcin Konik
!!!END: 2015-0m-dd
!!!EED: Marcin Konik
!!!EEV: 
!!!ONB: Encoded in vim by Marcin Konik
!!!CharacterEncoding: utf-8
!!!RDF**kern: l=long note in original notation
!!!RDF**kern: i=editorial accidental
!!muse2ps: z14jc180F
!!!COM: Anonim
!!!CDT: [?]
!!!TXO: Polish
!!!ODT: 
!!!GTL: Hymnbook C
!!!ARL: Opactwo św. Wojciecha, Staniątki 
!!!voices:	1
